material/.icons/material/bus-articulated-end.svg

<svg xmlns="http://www.w3.org/2000/svg" viewBox="0 0 24 24"><path d="M21.5 6L20 7.5 21.5 9 20 10.5l1.5 1.5-1.5 1.5 1.5 1.5h-9a3 3 0 01-3 3 3 3 0 01-3-3h-4V8c0-1.11.89-2 2-2h17m-3 1.5H15V10h3.5V7.5m-5 0h-4V10h4V7.5M8 7.5H4V10h4V7.5m1.5 6A1.5 1.5 0 008 15a1.5 1.5 0 001.5 1.5A1.5 1.5 0 0011 15a1.5 1.5 0 00-1.5-1.5z"/></svg>

<?xml version="1.0" encoding="UTF-8"?><!DOCTYPE svg PUBLIC "-//W3C//DTD SVG 1.1//EN" "http://www.w3.org/Graphics/SVG/1.1/DTD/svg11.dtd"><svg xmlns="http://www.w3.org/2000/svg" xmlns:xlink="http://www.w3.org/1999/xlink" version="1.1" id="mdi-bus-articulated-end" width="24" height="24" viewBox="0 0 24 24"><path d="M21.5,6L20,7.5L21.5,9L20,10.5L21.5,12L20,13.5L21.5,15H12.5A3,3 0 0,1 9.5,18A3,3 0 0,1 6.5,15H2.5V8C2.5,6.89 3.39,6 4.5,6H21.5M18.5,7.5H15V10H18.5V7.5M13.5,7.5H9.5V10H13.5V7.5M8,7.5H4V10H8V7.5M9.5,13.5A1.5,1.5 0 0,0 8,15A1.5,1.5 0 0,0 9.5,16.5A1.5,1.5 0 0,0 11,15A1.5,1.5 0 0,0 9.5,13.5Z" /></svg>
